build/svg/cmd/sc_comparedocuments.svg

<?xml version="1.0" encoding="UTF-8" standalone="no"?>
<svg
   xmlns:dc="http://purl.org/dc/elements/1.1/"
   xmlns:cc="http://creativecommons.org/ns#"
   xmlns:rdf="http://www.w3.org/1999/02/22-rdf-syntax-ns#"
   xmlns:svg="http://www.w3.org/2000/svg"
   xmlns="http://www.w3.org/2000/svg"
   xmlns:sodipodi="http://sodipodi.sourceforge.net/DTD/sodipodi-0.dtd"
   xmlns:inkscape="http://www.inkscape.org/namespaces/inkscape"
   viewBox="0 0 16 16"
   version="1.1"
   id="svg4"
   sodipodi:docname="sc_comparedocuments.svg"
   inkscape:version="0.92.5 (2060ec1f9f, 2020-04-08)"
   inkscape:export-filename="/home/jupiter007/Libreoffice yaru theme fullcolor/build/cmd/sc_comparedocuments.png"
   inkscape:export-xdpi="95"
   inkscape:export-ydpi="95"><metadata
   id="metadata10">
  <rdf:RDF>
    <cc:Work
       rdf:about="">
      <dc:format>image/svg+xml</dc:format>
      <dc:type
         rdf:resource="http://purl.org/dc/dcmitype/StillImage" />
    </cc:Work>
  </rdf:RDF>
</metadata>
<defs
   id="defs8" />
<sodipodi:namedview
   pagecolor="#ffffff"
   bordercolor="#666666"
   borderopacity="1"
   objecttolerance="10"
   gridtolerance="10"
   guidetolerance="10"
   inkscape:pageopacity="0"
   inkscape:pageshadow="2"
   inkscape:window-width="1920"
   inkscape:window-height="1011"
   id="namedview6"
   showgrid="false"
   inkscape:zoom="29.5"
   inkscape:cx="11.144344"
   inkscape:cy="8.8441925"
   inkscape:window-x="0"
   inkscape:window-y="32"
   inkscape:window-maximized="1"
   inkscape:current-layer="svg4" />
/&gt;<path
   style="font-style:normal;font-variant:normal;font-weight:normal;font-stretch:normal;font-size:15px;line-height:125%;font-family:Ubuntu;-inkscape-font-specification:Ubuntu;text-align:center;letter-spacing:0px;word-spacing:0px;writing-mode:lr-tb;text-anchor:middle;display:inline;opacity:0.6;fill:#000000;fill-opacity:1;stroke:none;stroke-width:0.99980211"
   d="M 3.9941406,0 C 2.7359406,0.0145 1.8152496,-0.030604 1.0624996,0.3847658 0.68613,0.5924257 0.389269,0.9441528 0.224609,1.3828125 0.059939,1.8214825 0,2.3424 0,3 v 1.488281 3.5124434 c 0,0.65761 0.0599,1.178577 0.224609,1.617188 0.16468,0.4386106 0.461531,0.7885236 0.8378906,0.9960926 0.75272,0.41513 1.673541,0.371649 2.931641,0.386719 h 0.002 4.0057869 0.0039 c 1.25819,-0.0145 2.1788925,0.0306 2.9316415,-0.384766 0.376371,-0.20766 0.673222,-0.559386 0.837892,-0.9980456 0.164538,-0.438671 0.224618,-0.959578 0.224618,-1.617188 V 4.466797 3 c 0,-0.6576 -0.0599,-1.1785776 -0.224609,-1.6171875 C 11.610688,0.9442127 11.313837,0.5942788 10.937478,0.386719 10.184707,-0.0284112 9.2638755,0.0150802 8.0057865,0 h -0.002 -4.005787 z"
   id="path825"
   inkscape:connector-curvature="0"
   sodipodi:nodetypes="cccscsccccccccscscccccc" />
<path
   sodipodi:nodetypes="cccccccsccccccc"
   style="opacity:1;vector-effect:none;fill:#ffffff;fill-opacity:1;stroke:none;stroke-width:1;stroke-linecap:round;stroke-linejoin:bevel;stroke-miterlimit:4;stroke-dasharray:none;stroke-dashoffset:0;stroke-opacity:1"
   d="m 3.9829997,1.0271848 c -1.5565809,0.010796 -0.1096212,-0.011752 -1.6595721,0.038775 -0.461229,0.042668 -1.016188,0.2064193 -1.15534,0.7099666 -0.218994,0.6353465 -0.108414,1.3337876 -0.145796,1.9819246 -0.0078,2.2970844 -0.02297,2.5965684 0.02152,4.8859214 0.0391,0.461929 0.202551,1.012666 0.698756,1.163666 0.632456,0.2250816 1.284144,0.12274 1.935974,0.154298 1.424235,0.0068 -0.1498058,0.01102 1.2760512,0.01131 1.7045307,3.5e-4 2.4086837,-0.005 4.1074867,-0.01851 0.511911,-0.01201 1.1836995,0.01993 1.5847455,-0.405191 0.421097,-0.539783 0.287073,-1.268021 0.322744,-1.903787 0.01187,-2.444324 0.02769,-2.911236 -0.0219,-5.3569359 C 10.89839,1.8865822 10.777677,1.4256705 10.372531,1.2441474 9.7043615,0.95005 8.9463255,1.0761285 8.2466085,1.0385746 6.4922025,1.0267721 5.7374388,1.0260902 3.9829997,1.0271848 Z"
   id="path827"
   inkscape:connector-curvature="0" />
<path
   sodipodi:nodetypes="cccscsccccccccscscccccc"
   inkscape:connector-curvature="0"
   id="path4237-1"
   d="m 7.9941621,4.9992756 c -1.2582,0.0145 -2.178891,-0.030604 -2.931641,0.3847658 -0.3763696,0.2076599 -0.6732306,0.559387 -0.8378906,0.9980467 -0.16467,0.43867 -0.224609,0.9595875 -0.224609,1.6171875 V 9.4875566 13 c 0,0.65761 0.0599,1.178577 0.224609,1.617188 0.16468,0.438611 0.461531,0.788524 0.8378906,0.996093 0.75272,0.41513 1.673541,0.371649 2.931641,0.386719 h 0.002 4.0057869 0.0039 c 1.25819,-0.0145 2.178892,0.0306 2.931641,-0.384766 0.376371,-0.20766 0.673222,-0.559386 0.837892,-0.998046 C 15.93992,14.178517 16,13.65761 16,13 V 9.4660726 7.9992756 C 16,7.3416756 15.9401,6.820698 15.775391,6.3820881 15.610709,5.9434883 15.313858,5.5935544 14.937499,5.3859946 14.184728,4.9708644 13.263897,5.0143558 12.005808,4.9992756 h -0.002 -4.005787 z"
   style="font-style:normal;font-variant:normal;font-weight:normal;font-stretch:normal;font-size:15px;line-height:125%;font-family:Ubuntu;-inkscape-font-specification:Ubuntu;text-align:center;letter-spacing:0px;word-spacing:0px;writing-mode:lr-tb;text-anchor:middle;display:inline;opacity:0.6;fill:#000000;fill-opacity:1;stroke:none;stroke-width:0.99980211" />
<path
   inkscape:connector-curvature="0"
   id="path1993"
   d="M 7.9830212,6.0264604 C 6.4264403,6.0372564 7.8734,6.0147084 6.3234491,6.0652354 c -0.461229,0.042668 -1.016188,0.2064193 -1.15534,0.7099666 -0.218994,0.6353465 -0.108414,1.3337876 -0.145796,1.9819246 -0.0078,2.2970844 -0.02297,2.5965684 0.02152,4.8859214 0.0391,0.461929 0.202551,1.012666 0.698756,1.163666 0.632456,0.225082 1.284144,0.12274 1.935974,0.154298 1.424235,0.0068 -0.1498058,0.01102 1.2760512,0.01131 1.7045307,3.5e-4 2.4086837,-0.005 4.1074867,-0.01851 0.511911,-0.01201 1.183699,0.01993 1.584745,-0.405191 C 15.067943,14.008838 14.933919,13.2806 14.96959,12.644834 14.98146,10.20051 14.99728,9.733598 14.94769,7.2878981 14.898411,6.8858578 14.777699,6.4249461 14.372552,6.243423 13.704383,5.9493256 12.946347,6.0754041 12.24663,6.0378502 10.492224,6.0260477 9.7374603,6.0253658 7.9830212,6.0264604 Z"
   style="opacity:1;vector-effect:none;fill:#ffffff;fill-opacity:1;stroke:none;stroke-width:1;stroke-linecap:round;stroke-linejoin:bevel;stroke-miterlimit:4;stroke-dasharray:none;stroke-dashoffset:0;stroke-opacity:1"
   sodipodi:nodetypes="cccccccsccccccc" />
<path
   sodipodi:nodetypes="cccccccc"
   style="opacity:0.6;fill:#000000;fill-opacity:1;stroke:#000000;stroke-width:2;stroke-linecap:butt;stroke-linejoin:round;stroke-miterlimit:4;stroke-dasharray:none;stroke-opacity:1"
   d="m 9.0000002,4.4998795 -4,3.5 v -2 H 1 v -3 H 5.0000002 V 0.99987968 Z"
   id="path839"
   inkscape:connector-curvature="0" />
<path
   sodipodi:nodetypes="cccccccc"
   id="path841"
   d="m 9.0000002,4.4998795 -4,3.5 v -2 H 1 v -3 H 5.0000002 V 0.99987968 Z"
   style="fill:#e97cc8;fill-opacity:1;stroke:none;stroke-width:1px;stroke-linecap:butt;stroke-linejoin:miter;stroke-opacity:1"
   inkscape:connector-curvature="0" />
<path
   inkscape:connector-curvature="0"
   id="path837"
   d="M 6.9999998,11.50012 11,15.00012 v -2 h 4 v -3 H 11 V 8.0001205 Z"
   style="opacity:0.6;fill:#000000;fill-opacity:1;stroke:#000000;stroke-width:2;stroke-linecap:butt;stroke-linejoin:round;stroke-miterlimit:4;stroke-dasharray:none;stroke-opacity:1"
   sodipodi:nodetypes="cccccccc" />
<path
   inkscape:connector-curvature="0"
   style="fill:#aee3f8;fill-opacity:1;stroke:none;stroke-width:1px;stroke-linecap:butt;stroke-linejoin:miter;stroke-opacity:1"
   d="M 6.9999998,11.50012 11,15.00012 v -2 h 4 v -3 H 11 V 8.0001205 Z"
   id="path840"
   sodipodi:nodetypes="cccccccc" />
</svg>

<svg xmlns="http://www.w3.org/2000/svg" viewBox="0 0 16 16">/&gt;<path style="line-height:125%;-inkscape-font-specification:Ubuntu;text-align:center" d="M3.994 0C2.736.015 1.815-.03 1.062.385a1.88 1.88 0 00-.837.998C.06 1.82 0 2.343 0 3V8.001c0 .657.06 1.178.225 1.617.164.439.461.788.837.996.753.415 1.674.372 2.932.387h4.012c1.258-.015 2.179.03 2.931-.385a1.88 1.88 0 00.838-.998C11.94 9.179 12 8.658 12 8V3c0-.658-.06-1.179-.225-1.617a1.875 1.875 0 00-.838-.996C10.185-.028 9.264.015 8.006 0H3.998z" font-weight="400" font-size="15" font-family="Ubuntu" letter-spacing="0" word-spacing="0" text-anchor="middle" opacity=".6"/><path d="M3.983 1.027c-1.557.011-.11-.012-1.66.039-.46.043-1.016.206-1.155.71-.219.635-.108 1.334-.146 1.982-.008 2.297-.023 2.596.022 4.886.039.462.202 1.012.699 1.163.632.226 1.284.123 1.936.155 1.424.007-.15.01 1.276.011 1.704 0 2.408-.005 4.107-.018.512-.012 1.184.02 1.585-.406.42-.54.287-1.268.323-1.903.011-2.445.027-2.912-.022-5.357-.05-.402-.17-.863-.575-1.045-.669-.294-1.427-.168-2.126-.205-1.755-.012-2.51-.013-4.264-.012z" fill="#fff"/><path d="M7.994 5c-1.258.014-2.179-.031-2.931.384a1.88 1.88 0 00-.838.998C4.06 6.821 4 7.342 4 8V13c0 .658.06 1.179.225 1.617.164.439.461.789.838.996.752.415 1.673.372 2.931.387h4.012c1.258-.015 2.179.03 2.931-.385a1.88 1.88 0 00.838-.998c.165-.438.225-.96.225-1.617V7.999c0-.657-.06-1.178-.225-1.617a1.875 1.875 0 00-.838-.996c-.752-.415-1.673-.372-2.931-.387H7.998z" style="line-height:125%;-inkscape-font-specification:Ubuntu;text-align:center" font-weight="400" font-size="15" font-family="Ubuntu" letter-spacing="0" word-spacing="0" text-anchor="middle" opacity=".6"/><path d="M7.983 6.026c-1.557.011-.11-.011-1.66.04-.46.042-1.016.206-1.155.71-.219.635-.108 1.333-.146 1.981-.007 2.297-.023 2.597.022 4.886.039.462.202 1.013.699 1.164.632.225 1.284.122 1.936.154 1.424.007-.15.011 1.276.011 1.704 0 2.408-.005 4.107-.018.512-.012 1.184.02 1.585-.405.42-.54.287-1.268.323-1.904.011-2.444.027-2.911-.022-5.357-.05-.402-.17-.863-.575-1.045-.669-.294-1.427-.168-2.126-.205-1.755-.012-2.51-.013-4.264-.012z" fill="#fff"/><path d="M9 4.5L5 8V6H1V3h4V1z" opacity=".6" stroke="#000" stroke-width="2" stroke-linejoin="round"/><path d="M9 4.5L5 8V6H1V3h4V1z" fill="#e97cc8"/><path d="M7 11.5l4 3.5v-2h4v-3h-4V8z" opacity=".6" stroke="#000" stroke-width="2" stroke-linejoin="round"/><path d="M7 11.5l4 3.5v-2h4v-3h-4V8z" fill="#aee3f8"/></svg>
